data/pieces/fancy/blackBishop.svg

<svg xmlns="http://www.w3.org/2000/svg" width="1000pt" height="1000pt" viewBox="0 0 1000 1000"><path d="M62 910c38-42 92-82 158-82 32 0 57 5 79 13 23 8 60 17 77 17s35-4 46-17v-4c-40-11-73-23-108-51 12-35 20-66 20-107 0-23-10-45-28-79s-36-95-36-146c0-172 153-296 197-330-16-14-18-30-18-37 0-19 11-35 36-35 23 0 33 17 33 31 0 17-8 30-20 39 15 12 34 28 47 40 13-12 21-22 31-35-11-9-24-22-24-40 0-19 13-35 33-35 22 0 33 16 33 30 0 18-11 31-20 41 52 51 136 146 136 278 0 64-16 117-38 173-13 34-24 71-24 107 0 37 4 60 14 97-26 24-51 44-110 56v4c9 11 24 20 38 20 30 0 46-1 76-11 34-11 65-19 91-19 77 0 133 38 157 66l-8 11c-16-11-31-19-56-23l-2 3c18 12 31 37 38 51l-9 8c-29-32-55-60-121-60-26 0-56 9-85 19-28 10-51 13-91 13-42 0-76-33-102-66h-4c-18 29-52 66-92 66-42 0-60-4-95-16-20-7-46-16-75-16-60 0-81 16-128 60l-9-8c11-19 21-32 36-45l-3-3c-17 5-39 16-61 33l-9-11" style="stroke-width:2;stroke-linecap:butt;stroke-linejoin:miter;stroke:#fff;stroke-opacity:1;stroke-miterlimit:10;fill-rule:nonzero;fill:#fff;fill-opacity:1"/><path d="M62 910c38-42 92-82 158-82 32 0 57 5 79 13 23 8 60 17 77 17s35-4 46-17v-4c-40-11-73-23-108-51 12-35 20-66 20-107 0-23-10-45-28-79s-36-95-36-146c0-172 153-296 197-330-16-14-18-30-18-37 0-19 11-35 36-35 23 0 33 17 33 31 0 17-8 30-20 39 15 12 34 28 47 40 13-12 21-22 31-35-11-9-24-22-24-40 0-19 13-35 33-35 22 0 33 16 33 30 0 18-11 31-20 41 52 51 136 146 136 278 0 64-16 117-38 173-13 34-24 71-24 107 0 37 4 60 14 97-26 24-51 44-110 56v4c9 11 24 20 38 20 30 0 46-1 76-11 34-11 65-19 91-19 77 0 133 38 157 66l-8 11c-16-11-31-19-56-23l-2 3c18 12 31 37 38 51l-9 8c-29-32-55-60-121-60-26 0-56 9-85 19-28 10-51 13-91 13-42 0-76-33-102-66h-4c-18 29-52 66-92 66-42 0-60-4-95-16-20-7-46-16-75-16-60 0-81 16-128 60l-9-8c11-19 21-32 36-45l-3-3c-17 5-39 16-61 33zm267-130c11-4 19-7 26-8 54-14 85-22 145-22s91 8 145 22c6 1 15 4 26 8 0-7-5-23-8-24-17-10-87-28-163-28s-146 18-163 28c-4 1-8 17-8 24m6-144c0 7 0 9 4 16 17-6 25-9 36-13 34-12 81-19 125-19s91 7 125 19c11 4 19 7 36 13 4-7 4-9 4-16 0-19-101-40-165-40s-165 21-165 40m7 95 3 1c43-40 43-50 43-54 0-6-16-11-40-16 0 24 0 44-6 69m22-340c0 11 1 19 11 19 6 0 17-1 32-4 14-3 30-5 38-5 12 0 15 8 15 17v111c0 12 2 15 22 15s22-3 22-15V418c0-9 3-17 15-17 8 0 24 2 38 5 15 3 26 4 32 4 10 0 11-8 11-19 0-17-5-24-53-27-35-2-43-6-43-19v-96c0-16-8-17-22-17s-22 1-22 17v96c0 13-8 17-43 19-48 3-53 10-53 27m63 457c0 8 26 11 32 11 16 0 27-1 27-15-17-1-37-3-53-6-4 4-6 6-6 10m11-174c0 8 46 30 56 30s56-24 56-30c0-8-44-30-56-30s-56 24-56 30m75 170c0 14 11 15 27 15 6 0 32-4 32-12 0-4-2-6-6-10-16 3-36 6-53 7m43-672c103 100 134 188 134 337l5 1c6-37 9-64 9-85 0-97-42-185-131-269zm60 515c0 8 11 18 38 37l3-2c-2-17-2-40-2-56-18 5-39 13-39 21" style="stroke:none;fill-rule:nonzero;fill:#000;fill-opacity:1"/></svg>

<?xml version="1.0" encoding="UTF-8"?>
<!--
	(c) 2010 Alexey Kryukov

    This work is free; you can redistribute it and/or modify
    it under the terms of the GNU General Public License as published by
    the Free Software Foundation; either version 2 of the License, or
    (at your option) any later version.

    This work is distributed in the hope that it will be useful,
    but WITHOUT ANY WARRANTY; without even the implied warranty of
    MERCHANTABILITY or FITNESS FOR A PARTICULAR PURPOSE.  See the
    GNU General Public License for more details.

    You should have received a copy of the GNU General Public License
    along with this program; if not, write to the Free Software
    Foundation, Inc., 51 Franklin Street, Fifth Floor, Boston, MA 02110-1301 USA
-->
<svg xmlns="http://www.w3.org/2000/svg" xmlns:xlink="http://www.w3.org/1999/xlink" width="1000pt" height="1000pt" viewBox="0 0 1000 1000" version="1.1">
<g id="surface0">
<path style="stroke-width:2;stroke-linecap:butt;stroke-linejoin:miter;stroke:white;stroke-opacity:1;stroke-miterlimit:10;fill-rule:nonzero;fill:white;fill-opacity:1;" d="M 62 910 C 100 868 154 828 220 828 C 252 828 277 833 299 841 C 322 849 359 858 376 858 C 393 858 411 854 422 841 L 422 837 C 382 826 349 814 314 786 C 326 751 334 720 334 679 C 334 656 324 634 306 600 C 288 566 270 505 270 454 C 270 282 423 158 467 124 C 451 110 449 94 449 87 C 449 68 460 52 485 52 C 508 52 518 69 518 83 C 518 100 510 113 498 122 C 513 134 532 150 545 162 C 558 150 566 140 576 127 C 565 118 552 105 552 87 C 552 68 565 52 585 52 C 607 52 618 68 618 82 C 618 100 607 113 598 123 C 650 174 734 269 734 401 C 734 465 718 518 696 574 C 683 608 672 645 672 681 C 672 718 676 741 686 778 C 660 802 635 822 576 834 L 576 838 C 585 849 600 858 614 858 C 644 858 660 857 690 847 C 724 836 755 828 781 828 C 858 828 914 866 938 894 L 930 905 C 914 894 899 886 874 882 L 872 885 C 890 897 903 922 910 936 L 901 944 C 872 912 846 884 780 884 C 754 884 724 893 695 903 C 667 913 644 916 604 916 C 562 916 528 883 502 850 L 498 850 C 480 879 446 916 406 916 C 364 916 346 912 311 900 C 291 893 265 884 236 884 C 176 884 155 900 108 944 L 99 936 C 110 917 120 904 135 891 L 132 888 C 115 893 93 904 71 921 L 62 910 "/>
<path style="stroke:none;fill-rule:nonzero;fill:black;fill-opacity:1;" d="M 62 910 C 100 868 154 828 220 828 C 252 828 277 833 299 841 C 322 849 359 858 376 858 C 393 858 411 854 422 841 L 422 837 C 382 826 349 814 314 786 C 326 751 334 720 334 679 C 334 656 324 634 306 600 C 288 566 270 505 270 454 C 270 282 423 158 467 124 C 451 110 449 94 449 87 C 449 68 460 52 485 52 C 508 52 518 69 518 83 C 518 100 510 113 498 122 C 513 134 532 150 545 162 C 558 150 566 140 576 127 C 565 118 552 105 552 87 C 552 68 565 52 585 52 C 607 52 618 68 618 82 C 618 100 607 113 598 123 C 650 174 734 269 734 401 C 734 465 718 518 696 574 C 683 608 672 645 672 681 C 672 718 676 741 686 778 C 660 802 635 822 576 834 L 576 838 C 585 849 600 858 614 858 C 644 858 660 857 690 847 C 724 836 755 828 781 828 C 858 828 914 866 938 894 L 930 905 C 914 894 899 886 874 882 L 872 885 C 890 897 903 922 910 936 L 901 944 C 872 912 846 884 780 884 C 754 884 724 893 695 903 C 667 913 644 916 604 916 C 562 916 528 883 502 850 L 498 850 C 480 879 446 916 406 916 C 364 916 346 912 311 900 C 291 893 265 884 236 884 C 176 884 155 900 108 944 L 99 936 C 110 917 120 904 135 891 L 132 888 C 115 893 93 904 71 921 L 62 910 M 329 780 C 340 776 348 773 355 772 C 409 758 440 750 500 750 C 560 750 591 758 645 772 C 651 773 660 776 671 780 C 671 773 666 757 663 756 C 646 746 576 728 500 728 C 424 728 354 746 337 756 C 333 757 329 773 329 780 M 335 636 C 335 643 335 645 339 652 C 356 646 364 643 375 639 C 409 627 456 620 500 620 C 544 620 591 627 625 639 C 636 643 644 646 661 652 C 665 645 665 643 665 636 C 665 617 564 596 500 596 C 436 596 335 617 335 636 M 342 731 L 345 732 C 388 692 388 682 388 678 C 388 672 372 667 348 662 C 348 686 348 706 342 731 M 364 391 C 364 402 365 410 375 410 C 381 410 392 409 407 406 C 421 403 437 401 445 401 C 457 401 460 409 460 418 L 460 529 C 460 541 462 544 482 544 C 502 544 504 541 504 529 L 504 418 C 504 409 507 401 519 401 C 527 401 543 403 557 406 C 572 409 583 410 589 410 C 599 410 600 402 600 391 C 600 374 595 367 547 364 C 512 362 504 358 504 345 L 504 249 C 504 233 496 232 482 232 C 468 232 460 233 460 249 L 460 345 C 460 358 452 362 417 364 C 369 367 364 374 364 391 M 427 848 C 427 856 453 859 459 859 C 475 859 486 858 486 844 C 469 843 449 841 433 838 C 429 842 427 844 427 848 M 438 674 C 438 682 484 704 494 704 C 504 704 550 680 550 674 C 550 666 506 644 494 644 C 482 644 438 668 438 674 M 513 844 C 513 858 524 859 540 859 C 546 859 572 855 572 847 C 572 843 570 841 566 837 C 550 840 530 843 513 844 M 556 172 C 659 272 690 360 690 509 L 695 510 C 701 473 704 446 704 425 C 704 328 662 240 573 156 L 556 172 M 616 687 C 616 695 627 705 654 724 L 657 722 C 655 705 655 682 655 666 C 637 671 616 679 616 687 "/>
</g>
</svg>
